icons/stitches.svg

<!--
  - The MIT License (MIT)
  -
  - Copyright (c) 2015-2024 Elior "Mallowigi" Boukhobza
  -
  - Permission is hereby granted, free of charge, to any person obtaining a copy
  - of this software and associated documentation files (the "Software"), to deal
  - in the Software without restriction, including without limitation the rights
  - to use, copy, modify, merge, publish, distribute, sublicense, and/or sell
  - copies of the Software, and to permit persons to whom the Software is
  - furnished to do so, subject to the following conditions:
  -
  - The above copyright notice and this permission notice shall be included in all
  - copies or substantial portions of the Software.
  -
  - THE SOFTWARE IS PROVIDED "AS IS", WITHOUT WARRANTY OF ANY KIND, EXPRESS OR
  - IMPLIED, INCLUDING BUT NOT LIMITED TO THE WARRANTIES OF MERCHANTABILITY,
  - FITNESS FOR A PARTICULAR PURPOSE AND NONINFRINGEMENT. IN NO EVENT SHALL THE
  - AUTHORS OR COPYRIGHT HOLDERS BE LIABLE FOR ANY CLAIM, DAMAGES OR OTHER
  - LIABILITY, WHETHER IN AN ACTION OF CONTRACT, TORT OR OTHERWISE, ARISING FROM,
  - OUT OF OR IN CONNECTION WITH THE SOFTWARE OR THE USE OR OTHER DEALINGS IN THE
  - SOFTWARE.
  -
  -->

<svg  version="1.1" xmlns="http://www.w3.org/2000/svg" viewBox="0 0 512 512" width="16px" height="16px">
  <path fill="#9e8cfc" data-iconColor="Stitches"
        d="M329.8278809,11.1480656C141.6405334-45.6194191-38.1197014,123.3916245,7.0358896,314.6377563c45.1556511,191.2461853,281.6669617,262.5907593,424.6986694,128.1121521S518.0151978,67.9155502,329.8278809,11.1480656z M473.9867859,304.773468L190.0715942,468.6341858c-19.2880096-6.0222473-37.7843933-14.5961609-54.8876495-25.5453796L400.424469,290.0029602c5.3922729-3.1172791,5.34729-10.4255371,0.6371765-13.8841858L252.2440033,165.8163147l144.0470123-83.13797C462.437439,136.1099091,491.5361023,223.6946411,473.9867859,304.773468z M324.059906,315.0242615l-41.707428,24.0718079L134.7349396,233.6376648l44.7012634-25.7997589L324.059906,315.0242615z M195.0341492,198.835434l41.6116638-24.0165405l144.6294556,107.1829987l-41.6289368,24.0265503L195.0341492,198.835434z M306.6100769,39.0997314l-264.022644,152.379837C75.2763672,84.637001,187.5932465,10.990881,306.6100769,39.0997314z M37.0404663,213.7501068L328.6343689,45.4576874c19.4813232,6.6765938,37.2492371,15.6603889,53.197876,26.4963531L115.3690414,225.7455597c-4.716568,2.78479-6.1157913,9.7346344-0.669426,13.8673401l151.9243469,108.5609894l-146.3725586,84.4801941C48.6662979,375.6513672,22.2227421,293.6717834,37.0404663,213.7501068z M467.8098145,327.391571C432.8815613,433.4959717,320.5611267,497.9030762,212.92099,474.4998169L467.8098145,327.391571z"/>
</svg>

<svg xmlns="http://www.w3.org/2000/svg" viewBox="0 0 512 512"><path fill="#9e8cfc" d="M329.828 11.148C141.64-45.619-38.12 123.392 7.036 314.638s281.667 262.59 424.699 128.112 86.28-374.834-101.907-431.602m144.159 293.625L190.072 468.634c-19.288-6.022-37.785-14.596-54.888-25.545l265.24-153.086c5.393-3.117 5.348-10.426.638-13.884L252.244 165.816l144.047-83.138c66.146 53.432 95.245 141.017 77.696 222.095M324.06 315.024l-41.708 24.072-147.617-105.458 44.701-25.8zM195.034 198.835l41.612-24.016 144.63 107.183-41.63 24.026zM306.61 39.1 42.587 191.48C75.277 84.637 187.593 10.99 306.61 39.1M37.04 213.75 328.634 45.458c19.482 6.676 37.25 15.66 53.198 26.496L115.37 225.746c-4.717 2.784-6.116 9.734-.67 13.867l151.925 108.56-146.373 84.481c-71.585-57.003-98.028-138.982-83.21-218.904m430.77 113.642C432.882 433.496 320.56 497.903 212.92 474.5z" data-iconColor="Stitches"/></svg>
